Numix-GalliumOS/16/devices/drive-removable-media-usb.svg

<?xml version="1.0" encoding="UTF-8" standalone="no"?>
<svg
   xmlns:dc="http://purl.org/dc/elements/1.1/"
   xmlns:cc="http://creativecommons.org/ns#"
   xmlns:rdf="http://www.w3.org/1999/02/22-rdf-syntax-ns#"
   xmlns:svg="http://www.w3.org/2000/svg"
   xmlns="http://www.w3.org/2000/svg"
   xmlns:sodipodi="http://sodipodi.sourceforge.net/DTD/sodipodi-0.dtd"
   xmlns:inkscape="http://www.inkscape.org/namespaces/inkscape"
   width="16"
   height="16"
   viewBox="0 0 16 16"
   id="svg2"
   version="1.1"
   inkscape:version="0.91 r"
   sodipodi:docname="drive-removable-media-usb.svg">
  <metadata
     id="metadata10">
    <rdf:RDF>
      <cc:Work
         rdf:about="">
        <dc:format>image/svg+xml</dc:format>
        <dc:type
           rdf:resource="http://purl.org/dc/dcmitype/StillImage" />
      </cc:Work>
    </rdf:RDF>
  </metadata>
  <defs
     id="defs8" />
  <sodipodi:namedview
     pagecolor="#ffffff"
     bordercolor="#666666"
     borderopacity="1"
     objecttolerance="10"
     gridtolerance="10"
     guidetolerance="10"
     inkscape:pageopacity="0"
     inkscape:pageshadow="2"
     inkscape:window-width="1920"
     inkscape:window-height="1056"
     id="namedview6"
     showgrid="true"
     inkscape:zoom="20.85965"
     inkscape:cx="13.572223"
     inkscape:cy="2.3209227"
     inkscape:window-x="0"
     inkscape:window-y="24"
     inkscape:window-maximized="1"
     inkscape:current-layer="svg2">
    <inkscape:grid
       type="xygrid"
       id="grid4138" />
  </sodipodi:namedview>
  <path
     style="fill:#dc4946;fill-opacity:1;stroke:none"
     d="M 7.9999999,16 C 12,16 12,12.5 12,12.5 L 12,5 C 12,4.446 11.554,4 11,4 L 5.0000002,4 C 4.4459998,4 3.9999998,4.446 3.9999998,5 l 0,7.5 c 0,0 -3.7e-6,3.5 4.0000001,3.5 z"
     id="rect2991"
     inkscape:connector-curvature="0"
     sodipodi:nodetypes="scsssscs" />
  <path
     style="opacity:0.39446369;fill:#ffffff;fill-opacity:1;stroke:none"
     d="M 10 4 L 10 15.607422 C 10.40957 15.420151 10.741269 15.181754 11 14.916016 L 11 4 L 10 4 z "
     id="rect3761" />
  <rect
     style="fill:#657b83;fill-opacity:1;stroke:none"
     id="rect3763"
     width="6"
     height="4.0000005"
     x="5"
     y="-4.000001"
     transform="scale(1,-1)"
     ry="0" />
  <rect
     style="fill:#002b36;fill-opacity:1;stroke:none"
     id="rect3767"
     width="1"
     height="2"
     x="6"
     y="-3.0000007"
     transform="scale(1,-1)" />
  <rect
     style="opacity:0.31141872;fill:#ffffff;fill-opacity:1;stroke:none"
     id="rect3765"
     width="1"
     height="4.0000005"
     x="9"
     y="-4.000001"
     transform="scale(1,-1)" />
  <rect
     style="fill:#002b36;fill-opacity:1;stroke:none"
     id="rect3769"
     width="1"
     height="2"
     x="9"
     y="-3.0000007"
     transform="scale(1,-1)" />
</svg>

<svg xmlns="http://www.w3.org/2000/svg" viewBox="0 0 16 16">
 <path d="m 8 16 c 4 0 4 -3.5 4 -3.5 l 0 -7.5 c 0 -0.554 -0.446 -1 -1 -1 l -6 0 c -0.554 0 -1 0.446 -1 1 l 0 7.5 c 0 0 0 3.5 4 3.5 z" style="fill:#dc4946;fill-opacity:1;stroke:none"/>
 <path d="m 10 4 l 0 11.607 c 0.41 -0.187 0.741 -0.426 1 -0.691 l 0 -10.916 l -1 0 z" style="fill:#fff;opacity:0.394;fill-opacity:1;stroke:none"/>
 <rect width="6" height="4" x="5" y="-4" transform="scale(1,-1)" rx="0" style="fill:#657b83;fill-opacity:1;stroke:none"/>
 <rect width="1" height="2" x="6" y="-3" transform="scale(1,-1)" style="fill:#002b36;fill-opacity:1;stroke:none"/>
 <rect width="1" height="4" x="9" y="-4" transform="scale(1,-1)" style="fill:#fff;opacity:0.311;fill-opacity:1;stroke:none"/>
 <rect width="1" height="2" x="9" y="-3" transform="scale(1,-1)" style="fill:#002b36;fill-opacity:1;stroke:none"/>
</svg>
